X: 27679
T: Morfa'r Frenhines
R: waltz
M: 3/4
K: Eminor
|:B,2|E2 EFGA|B4 B2|e2 e3 e|d2 B2 B2|e2 B2 G2|A2 ABc2|B2 E2 E2|D4 B,2|
E2 EFGA|B4 B2|e2 egfe|d2 B2 B2|e2 B2 G2|A2 ABc2|B2 EGFG|E4:|
z2|g2 g3 g|f2 f3 f|e2 egfe|d2 B2 B2|e2 B2 G2|A2 ABc2|B2 E2 E2|D4 B,2|
E2 EFGA|B4 B2|e2 egfe|d2 B2 B2|e2 B2 G2|A2 ABc2|B2 EGFG|E4||

